X:1
T:Cusdrin voust gnir cun mai (Polka) G (pk02285)
T:Hanny Christen. Bd.II  St. Gallen II, GraubÃ¼nden, Tessin. S.346 (pk02285) orig. G
T: BÃ¼ndner und Engadiner TÃ¤nze. S.330-349. Ãœberliefert durch Giacomin Morell, Ardez.
O:Switzerland
%%MIDI program 21
R:polka
M:2/4
L:1/8
K:G %%MIDI gchordon
B | "G"BB c>A |  AG Bd | "D7"A3A  | "G"BB Bc/>A/ | BA Bd | "Am"A2AA | 
AA A>G | "D7"FG Ac | "G"B2 AG | "Am"cB A>G | "D7"FG AB | "G"G2z2 |] 
W:
W:Cusdrin voust gnir cun mai (Liebeslied, Tanzlied)
W:cusdrin (cousin), voust tu (willst du? do you want?); 
W:gnir - kommen (to come); cun mai - mit mir (with me)
W: see: http://www.udg.ch/dicziunari/  (rumantsch vallader <> tudais-ch/deutsch)
% pk02285  
% Nov 13, 2016

